!!!!SEGMENT: pl-cz--ii-116--003_jeric--partita-b-andante.krn
!!!id: 18xx:2471
!!!COM: Jeric
!!!COM-rism: pe30098283
!!!CDT:
!!!CNT:
!!!OTL: Partita B - Andante
!!!PDT: 1801
!!!SMS-siglum: PL-CZ
!!!SMS-shelfmark: II-116
!!!NIFC-rismID: 300000527
!!!URL-scan: http://repozytorium.nifc.pl/skany/pl-cz-nut--ii-116
!!!ONB-nifc: UWAGA: części Partity: 1. Allegro, 2. Menuetto, 3. Andante, 4. Menuetto, 5. Rondo. W Particie 2 Menuety (002 i 004). Kontynuacja partii Fagotu na skanie 0008, str. 8
!!!SMS-variant:
!!!SMS-altvar:
**kern	**dynam	**kern	**dynam	**kern	**dynam	**kern	**dynam	**kern	**dynam
*group2	*group2	*group2	*group2	*group1	*group1	*group1	*group1	*group1	*group1
*part5	*part5	*part4	*part4	*part3	*part3	*part2	*part2	*part1	*part1
*staff5	*	*staff4	*	*staff3	*	*staff2	*	*staff1	*
*I"Cornu Secundo. in B.	*	*I"Cornu Primu in B	*	*I"Fagotto.	*	*I"Clarinetto Secundo. in B.	*	*I"Clarinetto. Primo in B.	*
*I'cor 2 in B|b	*	*I'cor 1 in B|b	*	*I'fag	*	*I'cl 2 in B|b	*	*I'cl 1 in B|b	*
*clefG2	*	*clefG2	*	*clefF4	*	*clefG2	*	*clefG2	*
*ITrd1c2	*	*ITrd1c2	*	*	*	*ITrd1c2	*	*ITrd1c2	*
*k[b-e-]	*	*k[b-e-]	*	*k[b-e-]	*	*k[b-e-]	*	*k[b-e-]	*
*M2/2	*	*M2/2	*	*M2/2	*	*M2/2	*	*M2/2	*
*met(c|)	*	*met(c|)	*	*met(c|)	*	*met(c|)	*	*met(c|)	*
=1	=1	=1	=1	=1	=1	=1	=1	=1	=1
*	*	*	*	*2\right	*	*	*	*	*
!	!	!LO:TX:a:t=4.	!	!	!	!LO:N:vis=00	!	!	!
!	!LO:DY:b:t=p.:rj	!LO:N:vis=00	!	!	!LO:DY:b:t=p&colon;:rj	!LO:TX:a:t=4.	!	!	!LO:DY:a:t=p&colon;
4B-/	p	00r	.	2d\	p	00r	.	2f/	p
4BB-/	.	.	.	.	.	.	.	.	.
4B-/	.	.	.	(>8e-\L	.	.	.	8g/L	.
.	.	.	.	8d\	.	.	.	8f/	.
4r	.	.	.	8c\	.	.	.	8e-/	.
.	.	.	.	8B-\J)	.	.	.	8d/J	.
=2	=2	=2	=2	=2	=2	=2	=2	=2	=2
4f/	.	.	.	4.A\	.	.	.	4.c/	.
4F/	.	.	.	.	.	.	.	.	.
.	.	.	.	16B-\LL	.	.	.	16d/LL	.
.	.	.	.	16c\JJ	.	.	.	16e-/JJ	.
4B-/	.	.	.	4B-\	.	.	.	8d/L	.
.	.	.	.	.	.	.	.	8f/	.
4r	.	.	.	8d\L	.	.	.	8b-/	.
.	.	.	.	8B-\J	.	.	.	8dd/J	.
=3	=3	=3	=3	=3	=3	=3	=3	=3	=3
4f/	.	.	.	4e-\	.	.	.	8cc\L	.
.	.	.	.	.	.	.	.	8a\	.
4B-/	.	.	.	8d\L	.	.	.	8b-\	.
.	.	.	.	8B-\J	.	.	.	8dd\J	.
4F/	.	.	.	4e-\	.	.	.	8cc\L	.
.	.	.	.	.	.	.	.	8a\	.
4B-/	.	.	.	8d\L	.	.	.	8b-\	.
.	.	.	.	8B-\J	.	.	.	8dd\J	.
=4	=4	=4	=4	=4	=4	=4	=4	=4	=4
4A/	.	.	.	8d\L	.	.	.	8ff\L	.
.	.	.	.	8c\	.	.	.	(>8ee-\	.
4B-/	.	.	.	8c\	.	.	.	8ee-\)	.
.	.	.	.	8B-\J	.	.	.	8dd\J	.
4F/	.	.	.	4B-\	.	.	.	(>4dd\	.
4r	.	.	.	4A\	.	.	.	4cc\)	.
=5	=5	=5	=5	=5	=5	=5	=5	=5	=5
*	*	*	*	*	*	*2\right	*	*2\right	*
!	!LO:DY:b:t=f.:rj	!	!LO:DY:b:t=f.:rj	!	!LO:DY:b:t=fu:rj	!	!LO:DY:b:t=fu:rj	!	!LO:DY:b:t=f.:rj
1d	f	1b-	f	8BB-\L	f	2dd\	f	2ff\	f
.	.	.	.	16C\L	.	.	.	.	.
.	.	.	.	16D\JJ	.	.	.	.	.
.	.	.	.	16E-\LL	.	.	.	.	.
.	.	.	.	16F\	.	.	.	.	.
.	.	.	.	16G\	.	.	.	.	.
.	.	.	.	16A\JJ	.	.	.	.	.
.	.	.	.	2B-\	.	(>8ee-\L	.	8gg\L	.
.	.	.	.	.	.	8dd\	.	(>8ff\	.
.	.	.	.	.	.	8cc\	.	8ee-\)	.
.	.	.	.	.	.	8b-\J)	.	8dd\J	.
=6	=6	=6	=6	=6	=6	=6	=6	=6	=6
*	*	*2\right	*	*	*	*	*	*	*
2f/	.	(>2cc\	.	4F\	.	4.a\	.	(>4.cc\	.
.	.	.	.	4FF/	.	.	.	.	.
.	.	.	.	.	.	16b-\LL	.	16dd\LL	.
.	.	.	.	.	.	16cc\JJ	.	16ee-\JJ)	.
!	!	!	!	!	!	!	!	!LO:LB:g=original	!
4b-\	.	4dd\)	.	4BB-/	.	8b-/L	.	8dd\L	.
.	.	.	.	.	.	8f/	.	8ff\	.
4r	.	4r	.	4r	.	8c/	.	8b-\	.
.	.	.	.	.	.	8f/J	.	8dd\J	.
=7	=7	=7	=7	=7	=7	=7	=7	=7	=7
4f/	.	4cc\	.	4F\	.	4e-/	.	8cc\L	.
.	.	.	.	.	.	.	.	8a\	.
4d/	.	4b-\	.	4BB-/	.	4d/	.	8b-\	.
.	.	.	.	.	.	.	.	8dd\J	.
!	!	!	!	!LO:LB:g=original	!	!	!	!	!
4f/	.	4cc\	.	4F\	.	4e-/	.	8cc\L	.
.	.	.	.	.	.	.	.	8a\	.
!	!	!	!	!	!	!LO:TX:t=P:problem:mixed beam	!	!	!
4d/	.	4b-\	.	4BB-/	.	8d/L	.	8b-\	.
.	.	.	.	.	.	8b-\J	.	8dd\J	.
!LO:LB:g=original	!	!	!	!	!	!	!	!	!
=8	=8	=8	=8	=8	=8	=8	=8	=8	=8
4r	.	4r	.	4r	.	8dd\L	.	8ff\L	.
.	.	.	.	.	.	8cc\J	.	8ee-\J	.
8.f/L	.	8.cc\L	.	4FF/	.	2cc\	.	2ee-\	.
16f/Jk	.	16cc\Jk	.	.	.	.	.	.	.
4f/	.	4cc\	.	4F\	.	.	.	.	.
4r	.	4r	.	4r	.	4a\	.	4cc\	.
=9	=9	=9	=9	=9	=9	=9	=9	=9	=9
4r	.	4r	.	4r	.	8cc\L	.	8ee-\L	.
.	.	.	.	.	.	8b-\J	.	8dd\J	.
8.d/L	.	8.b-\L	.	4BB-/	.	2b-\	.	2dd\	.
16d/Jk	.	16b-\Jk	.	.	.	.	.	.	.
4d/	.	4b-\	.	4B-\	.	.	.	.	.
!	!	!	!	!	!	!LO:LB:g=original	!	!	!
4r	.	4r	.	4r	.	4d/	.	(>16b-\LL	.
.	.	.	.	.	.	.	.	16dd\	.
.	.	.	.	.	.	.	.	16ff\)	.
.	.	.	.	.	.	.	.	16bb-\JJ	.
=10	=10	=10	=10	=10	=10	=10	=10	=10	=10
4B-/	.	4b-\	.	4E-\	.	4e-/	.	8aa\L	.
.	.	.	.	.	.	.	.	8gg\	.
4r	.	4r	.	4r	.	4r	.	8ff\	.
.	.	.	.	.	.	.	.	8ee-\J	.
4f/	.	4cc\	.	4F\	.	8f/L	.	8dd\L	.
.	.	.	.	.	.	8e-/	.	8cc\	.
4f/	.	4cc\	.	4FF/	.	8d/	.	8b-\	.
.	.	.	.	.	.	8c/J	.	8a\J	.
=11	=11	=11	=11	=11	=11	=11	=11	=11	=11
2f/	.	2cc\	.	4B-\	.	(<2e-/	.	(>2a\	.
.	.	.	.	4F\	.	.	.	.	.
4d/	.	4b-\	.	4BB-/	.	4d/)	.	4b-\)	.
4r	.	4r	.	4r	.	4r	.	4r	.
!	!	!LO:LB:g=original	!	!	!	!	!	!	!
=12:|!|:	=12:|!|:	=12:|!|:	=12:|!|:	=12:|!|:	=12:|!|:	=12:|!|:	=12:|!|:	=12:|!|:	=12:|!|:
!	!LO:DY:b:t=p&colon;:rj	!LO:TX:a:t=4.	!	!	!	!LO:TX:a:t=4.	!	!	!
!	!	!LO:N:vis=00	!	!	!LO:DY:b:t=p&colon;:rj	!LO:N:vis=00	!	!	!LO:DY:b:t=p&colon;:rj
4F/	p	00r	.	(>8A\L	p	00r	.	8c/L	p
.	.	.	.	8G\	.	.	.	(<8B-/	.
4f/	.	.	.	8F\	.	.	.	8A/	.
.	.	.	.	8G\J)	.	.	.	8B-/J)	.
4F/	.	.	.	8A\L	.	.	.	8c'</L	.
.	.	.	.	(>8A\	.	.	.	(<8c/	.
4r	.	.	.	8B-\)	.	.	.	8d/	.
.	.	.	.	8c\J	.	.	.	8e-/J)	.
!	!	!	!	!	!	!	!	!LO:LB:g=original	!
=13	=13	=13	=13	=13	=13	=13	=13	=13	=13
!LO:TX:t=P:problem:t.13 zapisany jako repetycja	!LO:DY:b:t=p&colon;:rj	!	!	!	!	!	!	!	!
4F/yy	p	.	.	8B-\L	.	.	.	8d/L	.
.	.	.	.	(>8F\	.	.	.	8c/	.
4f/yy	.	.	.	8D\	.	.	.	8B-/	.
.	.	.	.	8F\J)	.	.	.	8c/J	.
4F/yy	.	.	.	8B-|>\L	.	.	.	8d/L	.
.	.	.	.	(>8B-\	.	.	.	8d/	.
4ryy	.	.	.	8c\	.	.	.	8e-/	.
.	.	.	.	8d\J)	.	.	.	8f/J	.
=14	=14	=14	=14	=14	=14	=14	=14	=14	=14
4F/	.	.	.	8c|>\L	.	.	.	8e-/L	.
.	.	.	.	8c|>\J	.	.	.	8e-/J	.
4BB-/	.	.	.	8r	.	.	.	8r	.
.	.	.	.	8B-\	.	.	.	8d/	.
!	!	!	!	!LO:LB:g=original	!	!	!	!	!
4F/	.	.	.	8c\L	.	.	.	8e-/L	.
.	.	.	.	8c\J	.	.	.	8e-/J	.
4B-/	.	.	.	8r	.	.	.	8r	.
.	.	.	.	8B-\	.	.	.	8d/	.
=15	=15	=15	=15	=15	=15	=15	=15	=15	=15
4f/	.	.	.	2B-\	.	.	.	(<2d/	.
4F/	.	.	.	.	.	.	.	.	.
4f/	.	.	.	8A\L	.	.	.	4c/)	.
.	.	.	.	16c\L	.	.	.	.	.
.	.	.	.	16d\JJ	.	.	.	.	.
4r	.	.	.	(>16c\LL	.	.	.	4r	.
.	.	.	.	16A\	.	.	.	.	.
.	.	.	.	16B-\	.	.	.	.	.
.	.	.	.	16G\JJ)	.	.	.	.	.
=16	=16	=16	=16	=16	=16	=16	=16	=16	=16
!	!LO:DY:b:rj	!	!LO:DY:b:t=f.:rj	!	!LO:DY:b:t=fu	!	!LO:DY:b:rj	!	!LO:DY:b:t=f.:rj
4F/	f	4f/	f	8A\L	f	8c/L	f	8cc\L	f
.	.	.	.	8G\	.	(<8B-/	.	(>8b-\	.
4F/	.	4f/	.	8F\	.	8A/	.	8a\	.
.	.	.	.	8G\J	.	8B-/J)	.	8b-\J)	.
4F/	.	4f/	.	8A\L	.	8c|</L	.	8cc'>\L	.
.	.	.	.	8A\	.	(<8c/	.	(>8cc\	.
4r	.	4r	.	8B-\	.	8d/	.	8dd\	.
.	.	.	.	8c\J	.	8e-/J)	.	8ee-\J)	.
!LO:LB:g=original	!	!	!	!	!	!	!	!	!
=17	=17	=17	=17	=17	=17	=17	=17	=17	=17
!LO:TX:t=P:problem:t. 17 zapisany jako repetycja	!LO:DY:b:rj	!	!	!	!	!	!	!	!
4F/yy	f	4f/	.	8B-\L	.	8d/L	.	8dd\L	.
.	.	.	.	8F\	.	(<8c/	.	(>8cc\	.
4F/yy	.	4f/	.	8D\	.	8B-/	.	8b-\	.
.	.	.	.	8F\J	.	8c/J)	.	8cc\J)	.
4F/yy	.	4f/	.	8B-\L	.	8d'</L	.	(>8dd\L	.
.	.	.	.	8B-\	.	(<8d/	.	8dd\)	.
4ryy	.	4r	.	8c\	.	8e-/	.	8ee-\	.
.	.	.	.	8d\J	.	8f/J)	.	8ff\J	.
=18	=18	=18	=18	=18	=18	=18	=18	=18	=18
4A/	.	1f	.	8c\L	.	8e-/L	.	8ee-\L	.
.	.	.	.	8c\J	.	8e-/J	.	8ee-\J	.
4B-/	.	.	.	8r	.	8r	.	8r	.
.	.	.	.	8B-\	.	8d/	.	8dd\	.
4A/	.	.	.	8c\L	.	8e-/L	.	8ee-\L	.
.	.	.	.	8c\J	.	8e-/J	.	8ee-\J	.
4B-/	.	.	.	8r	.	8r	.	8r	.
.	.	.	.	8B-\	.	8d/	.	8dd\	.
!	!	!	!	!	!	!LO:LB:g=original	!	!LO:PB:g=original	!
=19	=19	=19	=19	=19	=19	=19	=19	=19	=19
!	!	!	!	!	!	!	!	!	!LO:DY:a:t=p&colon;:rj
4F/	.	4f/	.	4A\	.	4c/	.	8cc\L	p
.	.	.	.	.	.	.	.	8ff\	.
4r	.	4r	.	4r	.	4r	.	8ff\	.
.	.	.	.	.	.	.	.	8ff\J	.
2r	.	2r	.	2r	.	2r	.	8eeX\L	.
.	.	.	.	.	.	.	.	8ff\	.
.	.	.	.	.	.	.	.	8gg\	.
.	.	.	.	.	.	.	.	8ff\J	.
=20	=20	=20	=20	=20	=20	=20	=20	=20	=20
!	!LO:DY:b:t=f.:rj	!	!LO:DY:b:rj	!	!	!	!	!	!LO:DY:b
1d	f	1b-	f	8BB-/L	.	2dd\	.	2ff|<\	f
.	.	.	.	16C/L	.	.	.	.	.
.	.	.	.	16D/JJ	.	.	.	.	.
.	.	.	.	16E-\LL	.	.	.	.	.
.	.	.	.	16F\	.	.	.	.	.
.	.	.	.	16G\	.	.	.	.	.
.	.	.	.	16A\JJ	.	.	.	.	.
.	.	.	.	2B-\	.	(>8ee-\L	.	(>8gg\L	.
.	.	.	.	.	.	8dd\	.	8ff\	.
.	.	.	.	.	.	8cc\)	.	8ee-\)	.
.	.	.	.	.	.	8b-\J	.	8dd\J	.
=21	=21	=21	=21	=21	=21	=21	=21	=21	=21
2f/	.	(>2cc\	.	4F\	.	4.a\	.	(>4.cc\	.
.	.	.	.	4FF/	.	.	.	.	.
.	.	.	.	.	.	16b-\LL	.	16dd\LL	.
.	.	.	.	.	.	16cc\JJ	.	16ee-\JJ)	.
4b-\	.	4dd\)	.	4BB-/	.	8b-/L	.	8dd\L	.
.	.	.	.	.	.	8f/	.	8ff\	.
4r	.	4r	.	4r	.	8d/	.	8b-\	.
.	.	.	.	.	.	8f/J	.	8dd\J	.
=22	=22	=22	=22	=22	=22	=22	=22	=22	=22
4f/	.	4cc\	.	4F\	.	4e-/	.	8cc\L	.
.	.	.	.	.	.	.	.	8a\	.
4d/	.	4b-\	.	4BB-/	.	4d/	.	8b-\	.
.	.	.	.	.	.	.	.	8dd\J	.
4f/	.	4cc\	.	4F\	.	4e-/	.	8cc\L	.
.	.	.	.	.	.	.	.	8a\	.
4d/	.	4b-\	.	4BB-/	.	8d\L	.	8b-\	.
.	.	.	.	.	.	8b-\J	.	8dd\J	.
=23	=23	=23	=23	=23	=23	=23	=23	=23	=23
4r	.	4r	.	4r	.	8dd\L	.	8ff\L	.
.	.	.	.	.	.	8cc\J	.	8ee-\J	.
8.f/L	.	8.cc\L	.	4FF/	.	2cc\	.	2ee-\	.
16f/Jk	.	16cc\Jk	.	.	.	.	.	.	.
4f/	.	4cc\	.	4F\	.	.	.	.	.
4r	.	4r	.	4r	.	4a\	.	4cc\	.
=24	=24	=24	=24	=24	=24	=24	=24	=24	=24
4r	.	4r	.	4r	.	8cc\L	.	8ee-\L	.
.	.	.	.	.	.	8b-\J	.	8dd\J	.
8.d/L	.	8.b-\L	.	4BB-/	.	2b-\	.	2dd\	.
16d/Jk	.	16b-\Jk	.	.	.	.	.	.	.
4d/	.	4b-\	.	4B-\	.	.	.	.	.
4r	.	4r	.	4r	.	4d/	.	16b-\LL	.
.	.	.	.	.	.	.	.	16dd\	.
.	.	.	.	.	.	.	.	16ff\	.
.	.	.	.	.	.	.	.	16bb-\JJ	.
!	!	!LO:LB:g=original	!	!LO:LB:g=original	!	!	!	!	!
=25	=25	=25	=25	=25	=25	=25	=25	=25	=25
4B-/	.	4b-\	.	4E-\	.	4e-/	.	8aa\L	.
.	.	.	.	.	.	.	.	8gg\	.
4r	.	4r	.	4r	.	4r	.	8ff\	.
.	.	.	.	.	.	.	.	8ee-\J	.
!	!	!	!	!	!	!	!	!LO:LB:g=original	!
4f/	.	4cc\	.	4F\	.	8f/L	.	8dd\L	.
.	.	.	.	.	.	8e-/	.	8cc\	.
4f/	.	4cc\	.	4FF/	.	8d/	.	8b-\	.
.	.	.	.	.	.	8c/J	.	8a\J	.
!	!	!	!	!	!	!LO:LB:g=original	!	!	!
=26	=26	=26	=26	=26	=26	=26	=26	=26	=26
2f/	.	2cc\	.	4B-\	.	(<2e-/	.	(>2a\	.
.	.	.	.	4F\	.	.	.	.	.
4d/	.	4b-\	.	4FF/	.	4d/)	.	4b-\)	.
!LO:TX:i:b:t=Menuetto Volti	!	!LO:TX:b:i:t=Meunetto Volti.	!	!	!	!LO:TX:i:b:t=Menuetto Volti.	!	!	!
4r	.	4r	.	4r	.	4r	.	4r	.
==	==	==	==	==	==	==	==	==	==
*-	*-	*-	*-	*-	*-	*-	*-	*-	*-
!!!system-decoration: [(g1)(g2)]
!!!RDF**kern: | = vertical stroke
!!!RDF**kern: > = above
!!!RDF**kern: < = below
!!!ENC: Marcin Jachim
!!!END: 2021-06-17
!!!EED: Antoni Szymański
!!!EST: 2021-06-23
